!!!COM: Scarlatti, Domenico
!!!CDT: 1685///-1757///
!!!OTL: Sonata in G Major, K.55, L.335
!!!SCT: K. 55
!!!SCT: L. 335
**kern	**kern	**dynam
*staff2	*staff1	*staff1/2
*Icemba	*Icemba	*Icemba
*>[A,A,B,B]	*>[A,A,B,B]	*>[A,A,B,B]
*>norep[A,B]	*>norep[A,B]	*>norep[A,B]
*>A	*>A	*>A
*clefF4	*clefG2	*clefG2
*k[f#]	*k[f#]	*k[f#]
*G:	*G:	*G:
*M3/8	*M3/8	*M3/8
*MM132	*MM132	*MM132
=1-	=1-	=1-
4.g\	(8gg\L	p
.	8dd\	.
.	8b\J)	.
=2	=2	=2
4.g\	(8gg\L	.
.	8ee\	.
.	8cc\J)	.
=3	=3	=3
4.g\	(8gg\L	.
.	8dd\	.
.	8b\J)	.
=4	=4	=4
(4.f#\	(16aa\LL	.
.	16gg\	.
.	16ff#\	.
.	16ee\	.
.	16dd\	.
.	16cc\JJ	.
=5	=5	=5
16g\LL	4.b\)	.
16f#\	.	.
16e\	.	.
16d\	.	.
16c\	.	.
16B\JJ	.	.
=6	=6	=6
8c'\L)	(16a/LL	.
.	16cc/	.
8d'\	16b/	.
.	16a/	.
8c'\J	16g/	.
.	16f#/JJ	.
=7	=7	=7
(16B\LL	4.dd\)	.
16A\	.	.
16G\	.	.
16F#\	.	.
16E\	.	.
16D\JJ	.	.
=8	=8	=8
8C'/L)	(16a/LL	<
.	16cc/	.
8D'/	16b/	.
.	16a/	.
8C'/J	16g/	.
.	16f#/JJ	.
=9	=9	=9
(16BB/LL	4.dd\)	.
16AA/	.	.
16GG/	.	.
16FF#/	.	.
16EE/	.	.
16DD/JJ	.	.
=10	=10	=10
8CC'/L)	(16a/LL	.
.	16cc/	.
8DD'/	16b/	.
.	16a/	.
8DD'/J	16g/	.
.	16f#/JJ)	.
=11	=11	=11
.	(f#q/	.
4.GG/	4.g/)	mf
=12	=12	=12
*	*^	*
4r	4dd^/	(8b\L	p
.	.	8d\)	.
8B'\	8dd/	8b'\J	.
=13	=13	=13	=13
(8A\L	(4cc/	4a\	.
8D\	.	.	.
8G\J)	8b/)	8g\	.
=14	=14	=14	=14
4r	4bb^/	(8gg\L	mf
.	.	8b\)	.
8G'\	8bb'/	8gg'\J	.
=15	=15	=15	=15
(8d\L	(4aa/	4ff#\	.
8D\)	.	.	.
8GG'\J	8bb/)	8gg\	.
=16	=16	=16	=16
4r	4dd^/	(8b\L	p
.	.	8d\)	.
8B'\	8dd'/	8b'\J	.
=17	=17	=17	=17
(8A\L	(4cc/	4a\	.
8D\	.	.	.
8G\J)	8b/)	8g\	.
=18	=18	=18	=18
4r	4bb^/	(8gg\L	mf
.	.	8b\)	.
8G'\	8bb'/	8gg'\J	.
=19	=19	=19	=19
(8d\L	(4aa/	4ff#\	.
8D\)	.	.	.
8GG'\J	8bb/)	8gg\	.
*	*v	*v	*
=20	=20	=20
(4.g\	16r	.
.	(16bb\LL	p
.	16b\	.
.	16cc#\	.
.	16dd\	.
.	16ee\JJ	.
=21	=21	=21
4.fn\)	16ffn\LL	.
.	16gg#\	.
.	16aa\	.
.	16gg#\)	.
.	(16gg#\	.
.	16aa\JJ)	.
=22	=22	=22
(4.fn\	16r	.
.	(16aa\LL	.
.	16a\	.
.	16b\	.
.	16cc#\	.
.	16dd\JJ	.
=23	=23	=23
4.e\)	16ee\LL	.
.	16ff#\	.
.	16gg\	.
.	16ff#\)	.
.	(16ff#\	.
.	16gg\JJ)	.
=24	=24	=24
4e\ (4g\	16r	.
.	(16gg\LL	<
.	16cc#\	.
.	16dd\	.
8d\)	16g\	.
.	16b-\JJ	.
=25	=25	=25
(4c#\	16a\LL	.
.	16gg\	.
.	16ffn\	.
.	16ee\	.
8d\)	16aa\	.
.	16dd\JJ)	.
=26	=26	=26
4e\ (4g\	16r	.
.	(16gg\LL	.
.	16cc#\	.
.	16dd\	.
8d\)	16g\	.
.	16b-\JJ	.
=27	=27	=27
(4c#\	16a\LL	.
.	16gg\	.
.	16ffn\	.
.	16ee\	.
8d\)	16aa\	.
.	16dd\JJ)	.
=28	=28	=28
4e\ (4g\	16r	.
.	(16gg\LL	.
.	16cc#\	.
.	16dd\	.
8d\)	16g\	.
.	16b-\JJ	.
=29	=29	=29
(4c#\	16a\LL	.
.	16gg\	.
.	16ffn\	.
.	16ee\	.
8d\ 8fn\)	16ff\	.
.	16gg\JJ)	.
=30	=30	=30
(16G\LL	([4.ee\	f
16B-\	.	.
16A\	.	.
16d\	.	.
16c#\	.	.
16g\JJ	.	.
=31	=31	=31
4.fn\)	16ee\LL]	.
.	16dd\	.
.	16ee\	.
.	16ffn\	.
.	16gg#\	.
.	16aa\JJ)	.
=32	=32	=32
(16G\LL	([4.ee\	.
16B-\	.	.
16A\	.	.
16d\	.	.
16c#\	.	.
16g\JJ	.	.
=33	=33	=33
4.fn\)	16ee\LL]	.
.	16dd\	.
.	16ee\	.
.	16ffn\	.
.	16gg#\	.
.	16aa\JJ)	.
=34	=34	=34
(16G\LL	[4.ee\	.
16B-\	.	.
16A\	.	.
16d\	.	.
16c#\	.	.
16g\JJ	.	.
=35	=35	=35
4.f#\	16ee\LL]	.
.	16aa\	.
.	16ff#\	.
.	16ee\	.
.	16dd\	.
.	16cc\JJ	.
=36	=36	=36
4.g\	16b\LL	.
.	16bb\	.
.	16gg\	.
.	16ff#\	.
.	16ee\	.
.	16dd\JJ	.
=37	=37	=37
8a'\L)	16cc#/LL	.
.	16b/	.
8A'\	16a/	.
.	16g/	.
8c#'\J	16f#/	.
.	16e/JJ	.
=38	=38	=38
(8d\L	16f#/LL	.
.	16a/	.
8G\)	16dd/	.
.	16f#/	.
8A'\J	16e/	.
.	16cc#/JJ	.
=39	=39	=39
(8DD/L	16dd/LL	.
.	16a/	.
8D/)	16f#/	.
.	16d/	.
8A'/J	16f#/	.
.	(16dd/JJ	.
=40	=40	=40
(8AAA/L	16ee/LL	.
.	16cc#/	.
8AA/)	16a/	.
.	16e/	.
8A'/J	16g/	.
.	16cc#/JJ	.
=41	=41	=41
(8DD\L	16dd/LL	.
.	16a/	.
8D\)	16f#/	.
.	16d/	.
8A'\J	16f#/	.
.	(16dd/JJ)	.
=42	=42	=42
(8AAA/L	16ee/LL	.
.	16cc#/	.
8AA/)	16a/	.
.	16e/	.
8A'/J	16g/	.
.	16cc#/JJ	.
=43	=43	=43
(8DD\L	16dd/LL	.
.	16a/	.
8D\)	16f#/	.
.	16d/	.
8A'\J	16f#/)	.
.	(16dd/JJ	.
=44	=44	=44
(8AAA/L	16ee/LL	.
.	16cc#/	.
8AA/)	16a/	.
.	16e/	.
8A'/J	16g/	.
.	16cc#/JJ	.
=45	=45	=45
*	*^	*
(8D\L	4.dd/)	(16f#\LL	.
.	.	16e\	.
8E\	.	16f#\	.
.	.	16g\	.
8F#\J	.	16a\	.
.	.	16g\JJ	.
*	*v	*v	*
=46	=46	=46
8G\L	16a/LL	.
.	16b/	.
8A'\)	16a/	.
.	16g/	.
8AA'\J	16f#/	.
.	16e/JJ)	.
=47	=47	=47
(8DD\L	16ff#\LL	p
.	16dd\	.
8D\)	16a\	.
.	16ff#\	.
8A'\J	16aa\	.
.	16ff#\JJ	.
=48	=48	=48
(8AAA/L	16gg\LL	.
.	16ee\	.
8AA/)	16a\	.
.	16ee\	.
8A'/J	16gg\	.
.	16ee\JJ	.
=49	=49	=49
(8DD\L	16ff#\LL	<
.	16dd\	.
8D\)	16a\	.
.	16ff#\	.
8A'\J	16aa\	.
.	16ff#\JJ	.
=50	=50	=50
(8AAA/L	16gg\LL	.
.	16ee\	.
8AA/)	16a\	.
.	16ee\	.
8A'/J	16gg\	.
.	16ee\JJ	.
=51	=51	=51
(8DD\L	16ff#\LL	.
.	16dd\	.
8D\)	16a\	.
.	16ff#\	.
8A'\J	16aa\	.
.	16ff#\JJ	.
=52	=52	=52
(8AAA/L	16gg\LL	.
.	16ee\	.
8AA/)	16a\	.
.	16ee\	.
8A'/J	16gg\	.
.	16ee\JJ	.
=53	=53	=53
(8D\L	16ff#\LL	.
.	16ee\	.
8E\	16ff#\	.
.	16gg\	.
8F#\J	16aa\	.
.	16gg\JJ	.
=54	=54	=54
8G\L	16aa\LL	.
.	16bb\	.
8A'\)	16aa\	.
.	16gg\	.
8AA'\J	16ff#\	.
.	16ee\JJ	.
=55	=55	=55
(8D\L	16dd\LL	f
.	16aa\	.
8E\	16ff#\	.
.	16ee\	.
8F#\J	16dd\	.
.	16cc#\JJ	.
=56	=56	=56
8G\L	16b\LL	.
.	16gg\	.
8A'\)	16ff#\	.
.	16ee\	.
8AA'\J	16dd\	.
.	16cc#\JJ	.
=57	=57	=57
(8D\L	16dd/LL	.
.	16a/	.
8E\	16f#/	.
.	16e/	.
8F#\J	16d/	.
.	16c#/JJ	.
=58	=58	=58
8G\L	16B/LL	.
.	16g/	.
8A'\)	16f#/	.
.	16e/	.
8AA'\J	16d/	.
.	16c#/JJ	.
=59	=59	=59
4.DD^/	4.d^/	.
=60:|!|:	=60:|!|:	=60:|!|:
*>B	*>B	*>B
4.d\	(8dd/L	p
.	8a/	.
.	8f#/J)	.
=61	=61	=61
4.d\	(8dd/L	.
.	8b/	.
.	8g/J)	.
=62	=62	=62
4.d\	(8dd\L	.
.	8a\)	<
.	(16f#\L	.
.	16ee\JJ	.
=63	=63	=63
4.cn\	8dd#\L	>
.	8a\)	.
.	8ee'\J	.
=64	=64	=64
(8B\L	(16ff#/LL	.
.	16ccn/	.
8BB\)	16b/	.
.	16a/	.
8d#'\J	16g/	.
.	16f#/JJ)	.
=65	=65	=65
(8e\L	(16bb\LL	<
.	16gg\	.
8G\	16ff#\	.
.	16ee\	.
8A\J	16dd#\	.
.	16ee\JJ	.
=66	=66	=66
8B\L	16ff#\LL	.
.	16cc\	.
8BB\)	16b\	.
.	16a\	.
8d#'\J	16g\	.
.	16f#\JJ)	.
=67	=67	=67
(8e\L	(16bb\LL	.
.	16gg\	.
8G\	16ff#\	.
.	16ee\	.
8A\J	16dd\	.
.	16ee\JJ	.
=68	=68	=68
8B\L	16ff#\LL	.
.	16cc\	.
8BB\)	16b\	.
.	16a\	.
8d#'\J	16g\	.
.	16f#\JJ)	.
=69	=69	=69
(8e\L	(16bb\LL	f
.	16aa\	.
8E\	16gg#\	.
.	16ffn\	.
8G#\J	16ee\	.
.	16dd\JJ	.
=70	=70	=70
8A\L	16cc#/LL	.
.	16b-/	.
8AA\)	16a/	.
.	16g/	.
8c#'\J	16fn/	.
.	16e/JJ)	.
=71	=71	=71
(8d\L	(16aa\LL	p
.	16ffn\	<
8Fn\	16ee\	.
.	16dd\	.
8G\J	16cc\	.
.	16dd\JJ	.
=72	=72	=72
8A\L	16ee/LL	.
.	16b-/	.
8AA\)	16a/	.
.	16g/	.
8c#'\J	16fn/	.
.	16e/JJ)	.
=73	=73	=73
(8d\L	(16aa\LL	.
.	16ff#\	.
8Fn\	16ee\	.
.	16dd\	.
8G\J	16cc\	.
.	16dd\JJ	.
=74	=74	=74
8A\L	16ee/LL	.
.	16b-/	.
8AA\)	16a/	.
.	16g/	.
8c#'\J	16fn/	.
.	16e/JJ	.
=75	=75	=75
4.d\	16f#/LL	f
.	16g/	.
.	16a/	.
.	16b-/	.
.	16cc/	.
.	16dd/JJ	.
=76	=76	=76
(16cn\LL	4.ee-\)	.
16e-\	.	.
16A\	.	.
16c\	.	.
16F#\	.	.
16A\JJ	.	.
=77	=77	=77
4.D\)	(16f#/LL	.
.	16g/	.
.	16a/	.
.	16b-/	.
.	16cc/	.
.	16dd/JJ	.
=78	=78	=78
(16c\LL	4.ee-\)	.
16e-\	.	.
16A\	.	.
16c\	.	.
16F#\	.	.
16A\JJ	.	.
=79	=79	=79
4.D\)	(16bn\LL	.
.	16cc\	.
.	16dd\	.
.	16ee-\	.
.	16ffn\	.
.	16gg\JJ	.
=80	=80	=80
(16d\LL	4.ffn\)	.
16fn\	.	.
16B\	.	.
16d\	.	.
16Fn\	.	.
16A-\JJ	.	.
=81	=81	=81
4.D\)	(16b\LL	.
.	16cc\	.
.	16dd\	.
.	16ee-\	.
.	16ffn\	.
.	16gg\JJ	.
=82	=82	=82
(16d\LL	4.ffn\)	.
16fn\	.	.
16B\	.	.
16d\	.	.
16Fn\	.	.
16A-\JJ	.	.
=83	=83	=83
4.D\)	(16bn\LL	.
.	16cc\	.
.	16dd\	.
.	16ee-\	.
.	16ffn\	.
.	16gg\JJ	.
=84	=84	=84
4.GG\ 4.G\	16ffn\LL	.
.	16aa-\	.
.	16gg\	.
.	16ff\	.
.	16ee-\	.
.	16dd\JJ	.
=85	=85	=85
(8C\L	16gg\LL	.
.	16ffn\	.
8c\)	16ee-\	.
.	16dd\	.
8c#'\J	16ccn\	.
.	16b-\JJ	.
=86	=86	=86
(8D\L	16a\LL	.
.	16ff#\	.
8d\)	16gg\	.
.	16b-\	.
8c#'\J	16a\	.
.	16b-\JJ	.
=87	=87	=87
(8D\L	16a\LL	.
.	16ff#\	.
8d\)	16gg\	.
.	16b-\	.
8c#'\J	16a\	.
.	16b-\JJ	.
=88	=88	=88
(16d\LL	8a\L)	p
16g\	.	.
16f#\	8ccn'\	.
16g\	.	.
16f#\	8dd'\J	.
16g\JJ	.	.
=89	=89	=89
16c'\LL	(8ee-\L	.
16g\	.	.
16f#\	8cc\)	.
16g\	.	.
16f#\	8gg'\J	.
16g\JJ	.	.
=90	=90	=90
16d'\LL	(8ff#\L	.
16g\	.	.
16f#\	8aa\)	.
16g\	.	.
16f#\	8bb-'\J	.
16g\JJ	.	.
=91	=91	=91
16e-'\LL	(8ccc\L	.
16g\	.	.
16f#\	8aa\)	.
16g\	.	.
16f#\	8gg'\J	.
16g\JJ	.	.
=92	=92	=92
16d'\LL	(8ff#\L	<
16g\	.	.
16f#\	8cc\)	.
16g\	.	.
16f#\	8dd'\J	.
16g\JJ	.	.
=93	=93	=93
16c'\LL	(8ee-\L	.
16g\	.	.
16f#\	8cc\)	.
16g\	.	.
16f#\	8gg'\J	.
16g\JJ	.	.
=94	=94	=94
16d'\LL	(8ff#\L	.
16g\	.	.
16f#\	8aa\)	.
16g\	.	.
16f#\	8bb'\J	.
16g\JJ	.	.
=95	=95	=95
16e-'\LL	(8ccc\L	f
16g\	.	.
16f#\	8aa\)	.
16g\	.	.
16f#\	8gg'\J	.
16g\JJ	.	.
=96	=96	=96
8d'\L)	(16ff#\LL	.
.	16ee-\	.
8D'\	16dd\	.
.	16cc\	.
(8f#\J	16b-\	.
.	16a\JJ	.
=97	=97	=97
8g'\L)	16b-\LL	>
.	16dd\	.
8G'\	16cc\	.
.	16b-\	.
8B-'\J	16a\)	.
.	16g\JJ	.
=98	=98	=98
4A\ (4c\	16r	.
.	(16cc/LL	p
.	16f#/	.
.	16g/	.
8G\)	16c/	.
.	16e-/JJ	.
=99	=99	=99
4F#\ (4c\	16d/LL	.
.	16cc/	.
.	16b-/	.
.	16a/	.
8G\)	16dd/	.
.	16g/JJ)	.
=100	=100	=100
4A\ (4c\	16r	.
.	(16cc/LL	.
.	16f#/	.
.	16g/	.
8G\)	16c/	.
.	16e-/JJ	.
=101	=101	=101
4F#\ (4c\	16d/LL	.
.	16cc/	.
.	16b-/	.
.	16a/	.
8G\)	16dd/	.
.	16g/JJ)	.
=102	=102	=102
4A\ (4c\	16r	.
.	(16cc/LL	.
.	16f#/	.
.	16g/	.
8G\)	16c/	.
.	16e-/JJ	.
=103	=103	=103
4F#\ (4c\	16d/LL	.
.	16cc/	.
.	16b-/	.
.	16a/	.
8G\)	16b-/	.
.	16cc/JJ)	.
=104	=104	=104
(16C\LL	([4.a/	f
16E-\	.	.
16D\	.	.
16G\	.	.
16F#\	.	.
16c\JJ	.	.
=105	=105	=105
4.B-\)	16a/LL]	.
.	16g/	.
.	16a/	.
.	16b-/	.
.	16cc#/	.
.	16dd/JJ)	.
=106	=106	=106
(16C\LL	([4.a/	.
16E-\	.	.
16D\	.	.
16G\	.	.
16F#\	.	.
16c\JJ	.	.
=107	=107	=107
4.B-\)	16a\LL]	.
.	16g\	.
.	16a\	.
.	16b-\	.
.	16cc#\	.
.	16dd\JJ)	.
=108	=108	=108
(16C\LL	[4.a/	.
16E-\	.	.
16D\	.	.
16G\	.	.
16F#\	.	.
16c\JJ	.	.
=109	=109	=109
4.Bn\	16a/LL]	.
.	(16dd/	.
.	16bn/	.
.	16a/	.
.	16g/	.
.	16f#/JJ	.
=110	=110	=110
4.c\	16e\LL	.
.	16ee\	.
.	16cc\	.
.	16b\	.
.	16a\	.
.	16gg\JJ	.
=111	=111	=111
8d'\L)	16ff#\LL	.
.	16ee\	.
8D'\	16dd\	.
.	16cc\	.
8F#'\J	16b\	.
.	16a\JJ	.
=112	=112	=112
(8G\L	16b\LL	.
.	16cc\	.
8C\)	16dd\	.
.	16cc\	.
8D'\J	16b\)	.
.	16a\JJ	.
=113	=113	=113
(8GG\L	(16gg\LL	.
.	16dd\	.
8G\)	16b\	.
.	16g\	.
8d'\J	16b\)	.
.	(16gg\JJ	.
=114	=114	=114
(8DD\L	16aa\LL	.
.	16ff#\	.
8D\)	16dd\	.
.	16a\	.
8d'\J	16cc\	.
.	16ff#\JJ	.
=115	=115	=115
(8GG\L	16gg\LL	.
.	16dd\	.
8G\)	16b\	.
.	16g\	.
8d'\J	16b\)	.
.	(16gg\JJ	.
=116	=116	=116
(8DD\L	16aa\LL	.
.	16ff#\	.
8D\)	16dd\	.
.	16a\	.
8B'\J	16cc\	.
.	16ff#\JJ	.
=117	=117	=117
(8GG\L	16gg\LL	.
.	16dd\	.
8G\)	16b\	.
.	16g\	.
8d'\J	16b\)	.
.	(16gg\JJ	.
=118	=118	=118
(8DD\L	16aa\LL	.
.	16ff#\	.
8D\)	16dd\	.
.	16a\	.
8d'\J	16cc\	.
.	16ff#\JJ	.
=119	=119	=119
*	*^	*
(8GG/L	4.gg/)	(16b\LL	.
.	.	16a\	.
8AA/	.	16b\	.
.	.	16cc\	.
8BB/J	.	16dd\	.
.	.	16cc\JJ	.
*	*v	*v	*
=120	=120	=120
8C/L	16dd\LL	.
.	16ee\	.
8D'/)	16dd\	.
.	16cc\	.
8DD'/J	16b\	.
.	16a\JJ)	.
=121	=121	=121
(8GG\L	(16bb\LL	p
.	16gg\	.
8G\)	16dd\	.
.	16b\	.
8d'\J	16dd\)	.
.	(16bb\JJ	.
=122	=122	=122
(8DD\L	16ccc\LL	.
.	16aa\	.
8D\)	16ff#\	.
.	16dd\	.
8d'\J	16ff#\	.
.	16ccc\JJ	.
=123	=123	=123
(8GG\L	16bb\LL	<
.	16gg\	.
8G\)	16dd\	.
.	16b\	.
8d\J	16dd\	.
.	16bb\JJ	.
=124	=124	=124
(8DD\L	16ccc\LL	.
.	16aa\	.
8D\)	16ff#\	.
.	16dd\	.
8d'\J	16ff#\	.
.	16ccc\JJ	.
=125	=125	=125
(8GG\L	16bb\LL	.
.	16gg\	.
8G\)	16dd\	.
.	16b\	.
8d'\J	16dd\	.
.	16bb\JJ	.
=126	=126	=126
(8DD\L	16ccc\LL	.
.	16aa\	.
8D\)	16ff#\	.
.	16dd\	.
8d'\J	16ff#\	.
.	16ccc\JJ)	.
=127	=127	=127
(8GG/L	16bb\LL	f
.	16aa\	.
8AA/	16gg\	.
.	16ff#\	.
8BB/J	16gg\	.
.	16dd\JJ	.
=128	=128	=128
8C/L	16ee\LL	.
.	16cc\	.
8D'/)	16b\	.
.	16a\	.
8DD/J	16g\	.
.	16f#\JJ	.
=129	=129	=129
(8GG/L	16g/LL	.
.	16dd/	.
8AA/	16b/	.
.	16a/	.
8BB/J	16g/	.
.	16f#/JJ	.
=130	=130	=130
8C/L	16e/LL	.
.	16cc/	.
8D'/)	16b/	.
.	16a/	.
8DD'/J	16g/	.
.	16f#/JJ	.
=131	=131	=131
(8GG/L	16g'/LL	.
.	16d/JJ	.
*	*clefF4	*clefF4
8AA/	16B\LL	.
.	16A\	.
8BB/J	16G\	.
.	16F#\JJ	.
=132	=132	=132
8C/L	16E\LL	.
.	16c\	.
8D'/)	16B\	.
.	16A\	.
8DD'/J	16G\	.
.	16F#\JJ	.
=133	=133	=133
4.GG^/	4.G^\	.
==:|!	==:|!	==:|!
*-	*-	*-
!!!ENC: Craig Stuart Sapp
!!!END: 2004/10/29/
